X: 25
M:2/4
L:1/16
K:A
(uEC)|A,CEA .c2(BA)|BEGB .d2(cB)|cA"4"eA aecA|BcdB "4"AGFE|
|:((3uefg)|aece .a2(ga)|fdBd .f2(ed)|cA"4"eA aecA|BcdB AGFE|
aece .a2(ga)|fdBd .f2(ed)|Acea Begb|gefg a2:|


